assets/icons/icon-circle-x.svg

<svg width="48" height="48" fill="none" xmlns="http://www.w3.org/2000/svg"><path d="m15 35.52 9-9 9 9L35.52 33l-9-9 9-9L33 12.48l-9 9-9-9L12.48 15l9 9-9 9L15 35.52ZM24 48c-3.28 0-6.38-.63-9.3-1.89-2.92-1.26-5.47-2.98-7.65-5.16-2.18-2.18-3.9-4.73-5.16-7.65C.63 30.38 0 27.28 0 24c0-3.32.63-6.44 1.89-9.36 1.26-2.92 2.98-5.46 5.16-7.62s4.73-3.87 7.65-5.13C17.62.63 20.72 0 24 0c3.32 0 6.44.63 9.36 1.89 2.92 1.26 5.46 2.97 7.62 5.13 2.16 2.16 3.87 4.7 5.13 7.62C47.37 17.56 48 20.68 48 24c0 3.28-.63 6.38-1.89 9.3-1.26 2.92-2.97 5.47-5.13 7.65-2.16 2.18-4.7 3.9-7.62 5.16C30.44 47.37 27.32 48 24 48Z" fill="#000"/></svg>

<svg width="48" height="48" viewBox="0 0 48 48" fill="none" xmlns="http://www.w3.org/2000/svg">
<path d="M15 35.52L24 26.52L33 35.52L35.52 33L26.52 24L35.52 15L33 12.48L24 21.48L15 12.48L12.48 15L21.48 24L12.48 33L15 35.52ZM24 48C20.72 48 17.62 47.37 14.7 46.11C11.78 44.85 9.23 43.13 7.05 40.95C4.87 38.77 3.15 36.22 1.89 33.3C0.63 30.38 0 27.28 0 24C0 20.68 0.63 17.56 1.89 14.64C3.15 11.72 4.87 9.18 7.05 7.02C9.23 4.86 11.78 3.15 14.7 1.89C17.62 0.63 20.72 0 24 0C27.32 0 30.44 0.63 33.36 1.89C36.28 3.15 38.82 4.86 40.98 7.02C43.14 9.18 44.85 11.72 46.11 14.64C47.37 17.56 48 20.68 48 24C48 27.28 47.37 30.38 46.11 33.3C44.85 36.22 43.14 38.77 40.98 40.95C38.82 43.13 36.28 44.85 33.36 46.11C30.44 47.37 27.32 48 24 48Z" fill="#0A0A0A"/>
</svg>
